X: 27491
T: Molly St George
R: waltz
M: 3/4
K: Gmajor
de/f/|g2 gf ed|d2 ed cB|B2 cB AG|E4 AB/d/|
ef/g/ f2 ed/B/|A2B2dD|EG A3(G|G4):|
DE/F/|G2GA BA|(B2B2) GA/B/|(c2{B}c)d ef|g2G2de/g/|
a2b2 ag/e/|d2 e2ed/B/|A3B d/B/A/G/|A4AB|
(c2 {B}c)d ef|g2 ag fe|de gB AG|E4ef|
gf ed cB|cB AG ED|EG A3(G|G4)||

